X: 71
%
U:~=!turn!
T: Ca' the Stirks frae out the Corn
C:Very old.
O:Scotland
B:Keith Norman MacDonald : "The Skye collection of the best reels & strathspeys extant" : 1887
Z:Ralph Palmer
R:Strathspey
M:C
L:1/8
K:A minor
a | A/A/A B>A Bd {/^f}e2 | d>gB>g A>G TE2 | (D<G)B>G A>GB>G | D/D/D (E>G) TB>AA ::
g | (Ta>b)a<g (b>a) Ta2 | {/^f}g>a{/a}b>a {/f}g>e{/^c}d>e | {/^f}g>age {/^c}d>e {/f}g2 | e>gd>g B>AA :|


